build/img/icon-fb.svg

<svg width="24" height="24" viewBox="0 0 24 24" fill="none" xmlns="http://www.w3.org/2000/svg">
<path d="M15.2274 12.0369H13.2698V19H10.3795V12.0369H9V9.54073H10.3795V7.96418C10.3489 7.5682 10.4044 7.17029 10.5422 6.79779C10.6799 6.42528 10.8966 6.08699 11.1775 5.80615C11.4583 5.52532 11.7966 5.30859 12.1691 5.17084C12.5416 5.0331 12.9395 4.9776 13.3355 5.00816H15.5033V7.43867H13.9267C13.8423 7.43479 13.758 7.44969 13.68 7.4823C13.602 7.51492 13.5322 7.56442 13.4757 7.62725C13.4191 7.69009 13.3772 7.76468 13.353 7.84566C13.3288 7.92664 13.3228 8.01199 13.3355 8.09556V9.54073H15.5689L15.2274 12.0369Z" fill="#4267B2"/>
</svg>

<svg width="24" height="24" fill="none" xmlns="http://www.w3.org/2000/svg"><path d="M15.227 12.037H13.27V19h-2.89v-6.963H9V9.54h1.38V7.964a2.75 2.75 0 012.955-2.956h2.168v2.43h-1.576a.572.572 0 00-.591.658V9.54h2.233l-.342 2.496z" fill="#4267B2"/></svg>
